packages/fxa-settings/src/components/PageAvatar/zoom-out.svg

<svg width="24" height="24" viewBox="0 0 24 24" fill="none" xmlns="http://www.w3.org/2000/svg">
<path fill-rule="evenodd" clip-rule="evenodd" d="M13.5231 7.6H17.7693C18.1769 7.6 18.5077 7.26917 18.5077 6.86154C18.5077 6.45391 18.1769 6.12308 17.7693 6.12308H13.5231C13.1155 6.12308 12.7847 6.45391 12.7847 6.86154C12.7847 7.26917 13.1155 7.6 13.5231 7.6Z" fill="#20123A"/>
<mask id="mask0" mask-type="alpha" maskUnits="userSpaceOnUse" x="5" y="4" width="12" height="13">
<path fill-rule="evenodd" clip-rule="evenodd" d="M5 4.64651H16.3849V16.0306H5V4.64651Z" fill="white"/>
</mask>
<g mask="url(#mask0)">
<path fill-rule="evenodd" clip-rule="evenodd" d="M14.9079 10.3386C14.9065 11.5689 14.453 12.6086 13.7087 13.3545C12.9628 14.0988 11.9231 14.5522 10.6928 14.5537C9.46179 14.5522 8.42203 14.0988 7.67619 13.3545C6.93182 12.6086 6.4784 11.5689 6.47693 10.3386C6.4784 9.10831 6.93182 8.06855 7.67619 7.32197C8.42203 6.57834 9.46179 6.12492 10.6928 6.12344C11.1004 6.12344 11.4313 5.79261 11.4313 5.38498C11.4313 4.97661 11.1004 4.64652 10.6928 4.64652C9.09182 4.64431 7.65477 5.2528 6.63126 6.27778C5.60628 7.30129 4.99853 8.73834 5 10.3386C4.99853 11.9388 5.60628 13.3759 6.63126 14.3994C7.65477 15.4244 9.09182 16.0321 10.6928 16.0306C12.293 16.0321 13.7301 15.4244 14.7536 14.3994C15.7786 13.3759 16.3863 11.9388 16.3849 10.3386C16.3849 9.93095 16.054 9.60012 15.6464 9.60012C15.2388 9.60012 14.9079 9.93095 14.9079 10.3386Z" fill="#20123A"/>
</g>
<mask id="mask1" mask-type="alpha" maskUnits="userSpaceOnUse" x="13" y="13" width="7" height="6">
<path fill-rule="evenodd" clip-rule="evenodd" d="M13.4922 13.1383H19.2154V18.8615H13.4922V13.1383Z" fill="white"/>
</mask>
<g mask="url(#mask1)">
<path fill-rule="evenodd" clip-rule="evenodd" d="M13.7087 14.399L17.9549 18.6452C18.2436 18.9339 18.7103 18.9339 18.9991 18.6452C19.2878 18.3564 19.2878 17.8897 18.9991 17.601L14.7529 13.3548C14.4642 13.0661 13.9975 13.0661 13.7087 13.3548C13.42 13.6436 13.42 14.1103 13.7087 14.399Z" fill="#20123A"/>
</g>
</svg>

<svg width="24" height="24" fill="none" xmlns="http://www.w3.org/2000/svg"><path fill-rule="evenodd" clip-rule="evenodd" d="M13.523 7.6h4.246a.739.739 0 000-1.477h-4.246a.739.739 0 000 1.477z" fill="#20123A"/><mask id="a" maskUnits="userSpaceOnUse" x="5" y="4" width="12" height="13"><path fill-rule="evenodd" clip-rule="evenodd" d="M5 4.647h11.385V16.03H5V4.647z" fill="#fff"/></mask><g mask="url(#a)"><path fill-rule="evenodd" clip-rule="evenodd" d="M14.908 10.339c-.002 1.23-.455 2.27-1.2 3.015-.745.745-1.785 1.198-3.015 1.2-1.231-.002-2.271-.455-3.017-1.2-.744-.745-1.198-1.785-1.2-3.015.002-1.23.456-2.27 1.2-3.017.746-.744 1.786-1.197 3.017-1.199a.739.739 0 000-1.476c-1.601-.003-3.038.606-4.062 1.63C5.606 7.302 5 8.739 5 10.34c-.001 1.6.606 3.037 1.631 4.06 1.024 1.025 2.46 1.633 4.062 1.632 1.6.001 3.037-.607 4.06-1.632 1.026-1.023 1.633-2.46 1.632-4.06a.739.739 0 00-1.477 0z" fill="#20123A"/></g><mask id="b" maskUnits="userSpaceOnUse" x="13" y="13" width="7" height="6"><path fill-rule="evenodd" clip-rule="evenodd" d="M13.492 13.138h5.723v5.723h-5.723v-5.723z" fill="#fff"/></mask><g mask="url(#b)"><path fill-rule="evenodd" clip-rule="evenodd" d="M13.709 14.399l4.246 4.246a.738.738 0 101.044-1.044l-4.246-4.246a.738.738 0 10-1.044 1.044z" fill="#20123A"/></g></svg>
